X: 1
T: Songs of Thankfulness and Praise
C: Words: Christopher Wordsworth, 1862.
C: Music: 'St. George`s Windsor', George Job Elvey, 1858. Setting: "The Anglican Hymn Book", 1871.
C: copyright: public domain.  This score is a part of the Open Hymnal Project, 2011 Revision.
S: Music source: "The Anglican Hymn Book", 1871, Hymn 361
M: 4/4 % time signature
L: 1/4 % default length
%%staves (S1V1 S1V2) | (S2V1 S2V2) 
V: S1V1 clef=treble 
%%MIDI beat 127 125 110 1
V: S1V2 
%%MIDI beat 127 125 110 1
V: S2V1 clef=bass 
%%MIDI beat 127 125 110 1
V: S2V2 
%%MIDI beat 127 125 110 1
K: G % key signature
%
%%MIDI program 1 0 % Piano 1
%%MIDI program 2 0 % Piano 1
%%MIDI program 3 0 % Piano 1
%%MIDI program 4 0 % Piano 1
%
% 1
[V: S1V1] [Q:1/4=120] B3/2 B/ | d B G A | B2 B3/2 B/ | d B G A | B2
w: 1.~Songs of thank- ful- ness and praise, Je- sus, Lord, to Thee we raise, 
w: 2.~Man- i- fest at Jor- dan's stream, Pro- phet, Priest, and King su- preme; 
w: 3.~Man- i- fest in mak- ing whole Pal- sied limbs and faint- ing soul; 
w: 4.~Sun and moon shall dark- ened be, Stars shall fall, the heav'ns shall flee, 
w: 5.~Grant us grace to see Thee, Lord, Mir- rored in Thy ho- ly Word; 
[V: S1V2] D3/2 D/ | D D E F | G2 D3/2 D/ | D D E E | ^D2
[V: S2V1] G,3/2 G,/ | A, B, B, D | D2  G,3/2 G,/ | A, G, B, C | F,2
[V: S2V2] G,3/2 G,/ | F, G, E, D, | G,2 G,3/2 G,/ | F, G, E, C, | B,,2
% 5
[V: S1V1]  B3/2 B/ | c c A3/2 A/ |B2 B ^c | d G F E | D2
w: Man- i- fest- ed by the star To the sa- ges from a- far; 
w: And at Ca- na, wedd- ing guest, In Thy God- head man- i- fest; 
w: Man- i- fest in val- iant fight, Quell- ing all the de- vil's might; 
w: Christ will then like light- ning shine, All will see His glor- ious sign: 
w: May we im- i- tate Thee now, And be pure, as pure art Thou; 
[V: S1V2] E3/2 E/ | E E D D | D2 D E | D E D ^C | D2
[V: S2V1] G,3/2 G,/ | A, A, F, F, | G,2 G, G, | A, B, A,3/2 G,/ | F,2
[V: S2V2] E,3/2 E,/ A,, A,, D, D, | G,,2 G, E, | F, G, A, A,, | D,2
% 9
[V: S1V1] F3/2 F/ | A F G A | B2 B3/2 B/ | d B c d | e2
w: Branch of ro- yal Da- vid's stem In Thy birth at Beth- le- hem; 
w: Man- i- fest in pow'r di- vine, Chang- ing wa- ter in- to wine; 
w: Man- i- fest in grac- ious will, Ev- er bring- ing good from ill; 
w: All will then the trum- pet hear; All will see the Judge ap- pear; 
w: That we like to Thee may be At Thy great E- pi- pha- ny; 
[V: S1V2] D3/2 D/ | D D D C | D2 D3/2 D/ | G G G =F | E2
[V: S2V1] A, A, | F, A, G,3/2 F,/ | G,2 G,3/2 G,/ | B, D C3/2 B,/ | C2
[V: S2V2] D,3/2 D,/ | D, C, B,, A,, | G,,2 G,,3/2 G,,/ | G, =F, E, D, | C,2
% 1
[V: S1V1] e3/2 e/ | c A d3/2 d/ | B2 !sintro!c e | d G B A | G2 !eintro!|]
w: An- thems be to Thee add- ressed, God in man made man- i- fest.
w: An- thems be to Thee add- ressed, God in man made man- i- fest.
w: An- thems be to Thee add- ressed, God in man made man- i- fest.
w: Thou by all wilt be con- fessed, God in man made man- i- fest.
w: And may praise Thee, ev- er blest, God in man made man- i- fest.
[V: S1V2] E ^G | A E D F | G2 G G | G G G F | G2 |]
[V: S2V1] B, E | E C A, D | D2 C C | D B, D3/2 C/ | B,2 |]
[V: S2V2]  ^G, E, | A,3/2 A,/ F, D, | G,2 E, C, | B,, E, D, D, | G,,2 |]
